X:1
T:Second Degree II - Danse Villageoise
%%singleline true
%%SYMBOL_SCALE_FACTOR 2
%%BAR_OFFSET 0.3
%%score { 1 | 2 }
L:1/4
Q:1/4=120
M:3/4
I:linebreak $
K:C
V:1 treble stafflines=5
V:2 bass
V:1
    (e c e | g e g | f e d | e2 c) | (e c e | g e g | f e d | c3) :|
V:2
    C,2 G, | C,3 | G,3 | C, E, G, | C,2 G, | C,3 | G,3 | C,3 :|
 